icons/dribbble-fill.svg

<svg viewBox="0 0 24 24" fill="currentColor" xmlns="http://www.w3.org/2000/svg"><path d="M12 2C6.47939 2 2 6.47939 2 12C2 17.5206 6.47939 22 12 22C17.5098 22 22 17.5206 22 12C22 6.47939 17.5098 2 12 2ZM18.6052 6.60954C19.7983 8.06291 20.5141 9.91756 20.5358 11.9241C20.2538 11.8699 17.4338 11.295 14.5922 11.6529C14.5271 11.5119 14.4729 11.3601 14.4078 11.2083C14.2343 10.7961 14.0391 10.3731 13.8438 9.97181C16.9891 8.692 18.4208 6.84816 18.6052 6.60954ZM12 3.47506C14.1692 3.47506 16.154 4.28851 17.6616 5.62256C17.5098 5.83948 16.2191 7.56399 13.1822 8.70281C11.7831 6.13232 10.2321 4.0282 9.9935 3.70282C10.6334 3.55097 11.3059 3.47506 12 3.47506ZM8.36662 4.27766C8.59437 4.58134 10.1128 6.69631 11.5336 9.21256C7.5423 10.2755 4.01736 10.2538 3.63774 10.2538C4.19089 7.60738 5.98047 5.40564 8.36662 4.27766ZM3.45336 12.0109C3.45336 11.9241 3.45336 11.8373 3.45336 11.7506C3.82212 11.7614 7.96529 11.8156 12.2277 10.5358C12.4773 11.013 12.705 11.5011 12.9219 11.9891C12.8134 12.0217 12.6941 12.0542 12.5857 12.0868C8.18221 13.5076 5.83948 17.3904 5.64425 17.7158C4.2885 16.2083 3.45336 14.2017 3.45336 12.0109ZM12 20.5466C10.026 20.5466 8.20391 19.8742 6.76139 18.7462C6.91323 18.4317 8.64856 15.0911 13.4642 13.41C13.4859 13.3991 13.4967 13.3991 13.5184 13.3883C14.7223 16.5011 15.2104 19.1149 15.3406 19.8633C14.3102 20.308 13.1822 20.5466 12 20.5466ZM16.7614 19.0824C16.6746 18.5618 16.2191 16.0672 15.1019 12.9978C17.7809 12.5748 20.1236 13.269 20.4165 13.3666C20.0478 15.7419 18.6811 17.7917 16.7614 19.0824Z"/></svg>

<svg xmlns="http://www.w3.org/2000/svg" viewBox="0 0 24 24">
    <g>
        <path fill="none" d="M0 0h24v24H0z"/>
        <path d="M12 2C6.48 2 2 6.48 2 12s4.48 10 10 10c5.51 0 10-4.48 10-10S17.51 2 12 2zm6.605 4.61a8.502 8.502 0 0 1 1.93 5.314c-.281-.054-3.101-.629-5.943-.271-.065-.141-.12-.293-.184-.445a25.424 25.424 0 0 0-.564-1.236c3.145-1.28 4.577-3.124 4.761-3.362zM12 3.475c2.17 0 4.154.814 5.662 2.148-.152.216-1.443 1.941-4.48 3.08-1.399-2.57-2.95-4.675-3.189-5A8.686 8.686 0 0 1 12 3.475zm-3.633.803a53.903 53.903 0 0 1 3.167 4.935c-3.992 1.063-7.517 1.04-7.896 1.04a8.581 8.581 0 0 1 4.729-5.975zM3.453 12.01v-.26c.37.01 4.512.065 8.775-1.215.25.477.477.965.694 1.453-.109.033-.228.065-.336.098-4.404 1.42-6.747 5.303-6.942 5.629a8.522 8.522 0 0 1-2.19-5.705zM12 20.547a8.482 8.482 0 0 1-5.239-1.8c.152-.315 1.888-3.656 6.703-5.337.022-.01.033-.01.054-.022a35.309 35.309 0 0 1 1.823 6.475 8.4 8.4 0 0 1-3.341.684zm4.761-1.465c-.086-.52-.542-3.015-1.66-6.084 2.68-.423 5.023.271 5.315.369a8.468 8.468 0 0 1-3.655 5.715z"/>
    </g>
</svg>
